svg/fluentui-system-icons/ic_fluent_padding_left_20_filled.svg

<svg width="20" height="20" viewBox="0 0 20 20" fill="none" xmlns="http://www.w3.org/2000/svg">
<path d="M2.75 3.75C2.33579 3.75 2 4.08579 2 4.5V5.8125C2 6.22671 2.33579 6.5625 2.75 6.5625C3.16421 6.5625 3.5 6.22671 3.5 5.8125L3.5 4.5C3.5 4.08579 3.16421 3.75 2.75 3.75ZM2.75 7.6875C2.33579 7.6875 2 8.02329 2 8.4375V11.0625C2 11.4767 2.33579 11.8125 2.75 11.8125C3.16421 11.8125 3.5 11.4767 3.5 11.0625L3.5 8.4375C3.5 8.02329 3.16421 7.6875 2.75 7.6875ZM2.75 12.9375C2.33579 12.9375 2 13.2733 2 13.6875V15C2 15.4142 2.33579 15.75 2.75 15.75C3.16421 15.75 3.5 15.4142 3.5 15V13.6875C3.5 13.2733 3.16421 12.9375 2.75 12.9375ZM17.25 3.75C16.8358 3.75 16.5 4.08579 16.5 4.5L16.5 15C16.5 15.4142 16.8358 15.75 17.25 15.75C17.6642 15.75 18 15.4142 18 15L18 4.5C18 4.08579 17.6642 3.75 17.25 3.75ZM4.71967 10.2803C4.42678 9.98744 4.42678 9.51256 4.71967 9.21967L8.96967 4.96967C9.26256 4.67678 9.73744 4.67678 10.0303 4.96967C10.3232 5.26256 10.3232 5.73744 10.0303 6.03033L7.06066 9L14.25 9C14.6642 9 15 9.33579 15 9.75C15 10.1642 14.6642 10.5 14.25 10.5L7.06066 10.5L10.0303 13.4697C10.3232 13.7626 10.3232 14.2374 10.0303 14.5303C9.73744 14.8232 9.26256 14.8232 8.96967 14.5303L4.71967 10.2803Z" fill="#212121"/>
</svg>

<svg xmlns="http://www.w3.org/2000/svg" width="20" height="20"><path d="M2.75 3.75A.75.75 0 0 0 2 4.5v1.313a.75.75 0 0 0 1.5 0V4.5a.75.75 0 0 0-.75-.75Zm0 3.938a.75.75 0 0 0-.75.75v2.624a.75.75 0 0 0 1.5 0V8.438a.75.75 0 0 0-.75-.75Zm0 5.25a.75.75 0 0 0-.75.75V15a.75.75 0 0 0 1.5 0v-1.313a.75.75 0 0 0-.75-.75Zm14.5-9.188a.75.75 0 0 0-.75.75V15a.75.75 0 0 0 1.5 0V4.5a.75.75 0 0 0-.75-.75ZM4.72 10.28a.75.75 0 0 1 0-1.06l4.25-4.25a.75.75 0 1 1 1.06 1.06L7.06 9h7.19a.75.75 0 0 1 0 1.5H7.06l2.97 2.97a.75.75 0 1 1-1.06 1.06l-4.25-4.25Z"/></svg>
